!!!!SEGMENT: pl-wnifc--3125-n--001_wieniawski-jozef--24-etudes-19me-etude.krn
!!!cenid: 18xx:3845
!!!COM: Wieniawski, Józef
!!!COM-rismID: pe137276
!!!CDT: 1837/05/23-1912/11/11
!!!CNT: Polish
!!!GTL: 24 Études
!!!OTL: 19me Etude
!!!OMV: 001
!!!PDT:
!!!AGN:
!!!SMS-siglum: PL-Wnifc
!!!SMS-shelfmark: 3125/n
!!!SMS-shelfwork: 001-001 G
!!!SMS-variant:
!!!SMS-altvar:
!!!NIFC-rismSourceID: 1001142383
!!!NIFC-rismChildID: 1001142385
!!!NIFC-islandoraID: nifc:212194
!!!URL-pdf-islandora: https://repozytorium.nifc.pl/islandora/object/nifc%3A212194/datastream/PDF/view
!!!URL-scan: https://polish.musicsources.pl/pl/lokalizacje/galeria/druki-muzyczne/16832 @EN{Scan on Polish Music Sources Website} @PL{Skany w portalu Dziedzictwo Muzyki Polskiej w otwartym dostępie}
!!!ONB-nifc: UWAGA: w zbiorze znajdują się Etiudy od nr 19-24 (pliki 001-006).
!!!AIN: 2 piano
!!!key: E-
!!!OMD: Vivo, con spirito, giojoso.
!!!OMD-mod: Vivo, con spirito, giojoso
**kern	**fing	**kern	**fing	**dynam
*part2	*	*part1	*	*part1
*staff2	*	*staff1	*	*
*I"[Pianoforte]	*	*I"[Pianoforte]	*	*
*I'	*	*I'	*	*
*Ipiano	*	*Ipiano	*	*
*ICklav	*	*ICklav	*	*
*clefF4	*	*clefG2	*	*
*k[b-e-a-]	*	*k[b-e-a-]	*	*
*E-:	*	*E-:	*	*
*M3/2	*	*M3/2	*	*
=1	=1	=1	=1	=1
*^	*^	*	*	*
*cue	*cue	*	*	*	*	*
*ped	*	*	*	*	*	*
!	!	!	!	!LO:TX:t=dédiée à Madame CLARA SCHUMANN.	!	!
!	!	!	!	!LO:TX:a:B:t=(CANON.)	!	!
!	!	!	!	!LO:N:n=2:cue	!	!
2G:: 2BB-:: 2EE-::/	2ryy	.	.	4ee-:: 4e-::\	.	mf
.	.	.	.	2b-\	3	.
2B-/	4B-\	.	.	.	.	.
*Xped	*	*	*	*	*	*
.	4BB-\	.	5	8cc\L	5	.
.	.	.	.	8g\J	2	.
.	.	.	.	8qb-/	4	.
2A-/	4C\	1	4	8a-\L	.	.
.	.	.	.	8g\	.	.
.	4D\	.	3	8f\	1	.
.	.	.	.	8b-\J	5	.
*	*	*v	*v	*	*	*
*v	*v	*	*	*	*
=2	=2	=2	=2	=2
*	*	*^	*	*
*	*	*	*^	*	*
*	*below	*	*cue	*	*	*
!	!	!LO:TX:t=P:problem:klamra	!	!	!	!
4G 4E-\	1 2	2g/	2e-\	4e-</	2 3	.
*Xcue	*	*	*	*	*	*
2B-\	2	.	.	4ryy	.	.
.	.	4d/	4ryy	2ryy	1	.
8c\L	1	4e-/	4ryy	.	3	.
8G\J	4	.	.	.	.	.
*	*above	*	*	*	*	*
8qB-/	2	.	.	.	.	.
*	*below	*	*	*	*	*
8A-\L	3	4f/	4c\	2ryy	1 4	.
8G\	.	.	.	.	.	.
8F\	.	4a-/	4d\	.	2 5	.
8B-\J	2	.	.	.	.	.
*	*	*v	*v	*v	*	*
=3	=3	=3	=3	=3
*	*above	*	*	*
2G\	3	8r	.	.
.	.	8B-/L	.	.
.	.	8b-/	.	.
*	*	*	*below	*
.	.	8e-/J	2	.
4D\	5	8r	.	.
.	.	8f/L	3	.
4E-\	.	8a-/	.	.
.	.	8g/J	.	.
4F\	3	8r	.	.
.	.	8c/L	1	.
4A-\	1	8f/	3	.
.	.	8e-/J	.	.
=4	=4	=4	=4	=4
*	*	*	*^	*
!	!	!LO:N:n=2:cue	!	!	!
8r	.	4f 4d/	3	1	.
8BB-\L	.	.	.	.	.
!	!	!LO:N:n=2:cue	!	!	!
8B-\	.	4g 4e-/	4	.	.
8E-\J	4	.	.	.	.
!	!	!LO:N:n=2:cue	!	!	!
8r	.	2a- 2c/	5	.	.
8F\L	3	.	.	.	.
8A-\	1	.	.	.	.
8G\J	.	.	.	.	.
!	!	!LO:N:n=2:cue	!	!	!
8r	.	2ff [2a-\	5	1	.
8C\L	5	.	.	.	.
8F\	1	.	.	.	.
8E-\J	3	.	.	.	.
*	*	*	*v	*v	*
!!LO:LB:g=original
=5	=5	=5	=5	=5
*	*	*^	*	*
*	*	*	*	*above	*
4F\	2	8ee-/L	4a-\]	4	.
.	.	8dd/J	.	.	.
4G\	1	4ee-/	2b-\	2 4	.
2A-\	4	1cc	.	5	.
*	*	*	*	*below	*
.	.	.	8a-\L	3	.
.	.	.	8b-\J	.	.
*	*below	*	*	*	*
2f'\	1	.	8a-\L	.	.
.	.	.	8g\	.	.
.	.	.	8f\	1	.
.	.	.	8e-\J	2	.
=6	=6	=6	=6	=6	=6
*	*	*	*	*above	*
8e-\L	2	2b-/	4a- 4f\	1 4 5	.
8d\J	.	.	.	.	.
4e-\	.	.	2g\	3	.
!LO:TX:t=P:problem:aplikatura – łuczek dolny i górny	!	!	!	!	!
1c	41	1a-	.	4	.
.	.	.	8f\L	1	.
.	.	.	8g\J	3	.
.	.	.	8f\L	1	.
.	.	.	8e-\	3	.
.	.	.	8d\	2	.
.	.	.	8c\J	1	.
*	*	*v	*v	*	*
=7	=7	=7	=7	=7
*	*above	*	*	*
!	!	!	!	!LO:HP:a
2B-\	2	8r	.	<
.	.	8c/L	1	.
.	.	8d/	.	.
.	.	8e-/J	.	.
1A-	3	8f/L	1	.
.	.	8g/	.	.
.	.	8a-/	.	.
.	.	8b-/J	.	.
.	.	8cc\L	1	.
.	.	8ee-\	3	.
.	.	8dd\	2	.
.	.	8ff\J	5	[[
=8	=8	=8	=8	=8
*	*	*^	*^	*
!	!	!	!	!	!	!LO:HP:b
8r	.	2ee-/	4r	3	.	<
8C\L	5	.	.	.	.	.
8D\	.	.	4g\	.	1	.
8E-\J	.	.	.	.	.	.
8F\L	.	4cc/	2.a-\	2	1	.
8G\	1	.	.	.	.	.
8A-\	3	2aa-^/	.	.	.	.
8B-\J	.	.	.	.	.	.
8c\L	1	.	.	.	.	.
8e-\	2	.	.	.	.	.
!	!	!LO:N:n=2:cue	!	!	!	!
8d\	3	4cc-X [4a-/	4ryy	1 3	.	.
8f\J	1	.	.	.	.	[[
*	*	*	*	*v	*v	*
!!LO:LB:g=original
=9	=9	=9	=9	=9	=9
*	*	*	*	*^	*
!	!	!LO:N:n=2:cue	!	!	!	!
2e-\	2	4b- 4a-/]	4ryy	2	.	.
.	.	2ee-/	4g\	5	1	.
*	*below	*	*	*	*	*
4c\	3	.	4a-\	.	1	.
2a-^\	1	8dd\L	4ryy	3	.	.
.	.	8ccn\J	.	2	.	.
.	.	8dd\L	4ryy	.	.	.
.	.	8ee-\J	.	.	.	.
4c-X\	4	4ff\	4ryy	5	.	.
*	*	*	*	*v	*v	*
=10	=10	=10	=10	=10	=10
4B-\	5	2.gg-X^/	4dd-X\	3 5	.
2e-\	2	.	4cc\	2	.
.	.	.	2.cc-X^\	1	.
8dn\L	3	2ff/	.	5	.
8cn\J	.	.	.	.	.
8d\L	.	.	.	.	.
8e-\J	.	.	.	.	.
4f\	1	4b-/	8b-\L	3	.
.	.	.	8a-\J	2	.
*	*	*v	*v	*	*
=11	=11	=11	=11	=11
*	*above	*	*	*
2.g-X^\	3	8r	.	f
.	.	8B-/L	.	.
.	.	8b-/	5	.
.	.	8B-/J	.	.
.	.	4.a-/	4	.
2f\	4	.	.	.
.	.	8Bn/	1	.
.	.	4c/	.	.
4B-X\	1	4c#X/	3	.
=12	=12	=12	=12	=12
8r	.	4d/	4	.
8BB-\L	.	.	.	.
8B-\	1	4c#X/	3	.
8BB-\J	.	.	.	.
4.A-\	1	4d/	1	.
.	.	4e-/	3	.
*	*below	*	*	*
8BBn/	5	.	.	.
4Cn/	.	4en/	1	.
4C#X/	3	4f/	2	.
!!LO:LB:g=original
=13	=13	=13	=13	=13
*	*	*^	*	*
4D/	1	2r	2r	.	.
4C#X/	4	.	.	.	.
4D/	3	1b-	2b-\	4	.
4E-X\	.	.	.	.	.
4En\	1	.	2a-\	3	.
4F\	2	.	.	.	.
*	*	*v	*v	*	*
=14	=14	=14	=14	=14
*^	*^	*	*	*
*cue	*	*	*	*	*	*
*ped	*Xcue	*	*	*	*	*
!	!	!	!	!LO:N:n=2:cue	!	!
!	!LO:TX:t=P:problem:cała nuta na środku taktu	!	!	!LO:N:n=3:cue	!	!
2G: 2BB-X: 2EE-X:/	1B-	1	.	4ee-X 4g 4e-X/	.	.
.	.	.	.	2b-/	4	.
4B-\	.	.	.	.	.	.
*Xped	*	*	*	*	*	*
4BB-\	.	.	5	8ccn/L	5	.
.	.	.	.	8g/J	2	.
.	.	.	.	8qb-/	4	.
!	!LO:N:cue	!	!	!	!	!
4C\	2A-/	2	5	8a-/L	.	.
.	.	.	.	8g/	.	.
4D\	.	.	.	8f/	1	.
.	.	.	.	8b-/J	5	.
*v	*v	*	*	*	*	*
*	*v	*v	*	*	*
=15	=15	=15	=15	=15
*	*	*^	*	*
*	*	*	*Xcue	*	*
!	!	!LO:TX:t=P:problem:klamra	!	!	!
!	!	!LO:N:n=2:cue	!	!	!
4G 4E-\	1 3	2g 2e-/	4e-</	2 3	.
*Xcue	*	*	*	*	*
2B-\	2	.	4ryy	.	.
.	.	4e-/	4ryy	2	.
8c\L	1	4en/	4ryy	.	.
8G\J	4	.	.	.	.
*	*above	*	*	*	*
8qB-/	2	.	.	.	.
*	*below	*	*	*	*
!	!	!LO:N:n=2:cue	!	!	!
8A-\L	3	4f 4c/	4ryy	1 4	.
8G\	.	.	.	.	.
!	!	!LO:N:n=2:cue	!	!	!
8F\	.	4a- 4d/	4ryy	2 5	.
8B-\J	2	.	.	.	.
=16	=16	=16	=16	=16	=16
*^	*	*	*	*	*
*ped	*cue	*	*	*cue	*	*
2G/	4G\	3	8rcc	8e-X\	1	>
*	*	*	*	*Xcue	*	*
.	.	.	8an/L	4.ryy	2	.
.	4EE-\	5	8b-/	.	.	.
.	.	.	8bn/J	.	.	.
*Xped	*	*	*	*	*	*
4E-/	4ryy	1	8cc/L	1ryy	5	.
.	.	.	8g/	.	.	.
4En/	4C\	1	8cc/	.	.	.
.	.	.	[8b-X/J	.	.	.
4F/	2FF\	1	8b-/L]	.	.	.
.	.	.	8a-X/	.	3	.
4A-/	.	1	8g/	.	1	.
.	.	.	8f#X/J	.	4	.
*	*	*	*v	*v	*	*
!!LO:LB:g=original
=17	=17	=17	=17	=17	=17
8rB	8GG\	.	2fn/	3	.
*	*	*above	*	*	*
8A-/L	8ryy	1	.	.	.
8B-/	8rGG	3	.	.	.
8Bn/J	8ryy	.	.	.	.
8c/L	8C\	1	4en/	2	.
8G/	8ryy	.	.	.	.
8c/	8rGG	.	4g/	4	.
[>8B-X/J	8ryy	2	.	.	.
*	*	*below	*	*	*
8B-/L]	8F\	5	4c/	1	.
*	*	*above	*	*	*
8A-X/	8ryy	3	.	.	.
8G/	8rGG	1	[4cc\	5	.
8F#X/J	8ryy	4	.	.	.
*v	*v	*	*	*	*
=18	=18	=18	=18	=18
*	*below	*	*	*
!	!	!LO:TX:b:i:t=marcato	!	!
2Fn\	1	4cc\]	.	.
.	.	2bn\	1	.
4En\	4	.	.	.
4G\	2	8gg\L	.	.
.	.	8b-X\J	2	.
4C/	5	4an/	1	.
[4c\	1	4a-X/	3	.
=19	=19	=19	=19	=19
*	*	*^	*	*
*	*	*cue	*	*	*
!	!	!LO:TX:t=P:problem:aplikatura – błąd wyświetlania	!	!	!
4c\]	.	4raa	2g\	2	.
2Bn\	2	2dd/	.	5	.
.	.	.	4d\	1	.
8g\L	1	2dd-X/	4en\	4	.
8B-X\J	3	.	.	.	.
4An\	4	.	4f\	.	.
*	*	*Xcue	*	*	*
4A-X\	5	[4cc/	4cc\	3	.
=20	=20	=20	=20	=20	=20
2G\	1	8cc\L]	2ryy	.	.
.	.	8bn\	.	1	.
.	.	8aa-\	.	5	.
.	.	8ff#X\J	.	4	.
4Dn\	5	8gg\L	2ryy	5	.
.	.	8b-X\	.	1	.
4En\	4	8dd-X\	.	4	.
.	.	8bn\J	.	2	.
4F\	3	8r	8ryy	.	.
*	*	*	*cue	*	*
.	.	8cc/L	4.a-\	1 2	.
[<4c\	1	8ddn/	.	.	.
.	.	8een/J	.	.	.
!!LO:LB:g=original
=21	=21	=21	=21	=21	=21
!LO:TX:t=P:problem:mixed beam	!	!	!	!	!
8c/L]	.	2ff/	8a-\	1 5	.
*	*	*	*Xcue	*	*
8Bn/	2	.	8ryy	.	.
*	*above	*	*	*	*
!LO:TX:t=P:problem:aplikatura – błąd wyświetlania	!	!	!	!	!
8a->\	1	.	4ryy	.	.
*	*below	*	*	*	*
8f#X/J	1	.	.	.	.
!LO:TX:t=P:problem:mixed beam	!	!	!	!	!
8g>\L	.	2een/	2ryy	1 4	.
8B-X/	3	.	.	.	.
8d-X/	1	.	.	.	.
8Bn/J	2	.	.	.	.
8rB	.	2g/	8ryy	3	.
!	!	!	!LO:TX:t=P:problem:mixed beam	!	!
8c\	1	.	8c</L	.	.
4C\	5	.	8dn\	1	.
.	.	.	8en\J	2	.
=22	=22	=22	=22	=22	=22
*^	*	*	*	*	*
!	!LO:TX:t=P:problem:aplikatura – błąd wyświetlania	!	!	!	!	!
!	!LO:TX:t=P:problem:aplikatura – łuczek dolny i górny	!	!	!	!	!
2ryy	1.F	35	4an/	2fnX\	1 4	.
.	.	.	4cc/	.	5	.
2en/	.	1	4b-X\	2ryy	2	.
.	.	.	[4dd-X\	.	4	.
2G/	.	4	8dd-\L]	2ryy	.	.
.	.	.	8cc\	.	1	.
.	.	.	8ddn\	.	3	.
.	.	.	8een\J	.	4	.
*v	*v	*	*	*	*	*
=23	=23	=23	=23	=23	=23
*ped	*above	*	*cue	*	*
!LO:N:n=2:cue	!	!	!	!	!
4An 4FF\	.	2ff/	4cc\	1 5	.
4c\	3	.	4an\	2	.
4B-\	4	2een/	8g\L	.	.
.	.	.	8a\J	.	.
*Xped	*	*	*	*	*
[4d-X\	2	.	4b-\	.	.
*	*	*	*Xcue	*	*
8d-\L]	.	4g/	2ryy	1	.
8c\	3	.	.	.	.
8dn\	2	4g#X/	.	2	.
8en\J	1	.	.	.	.
=24	=24	=24	=24	=24	=24
*^	*^	*	*	*	*
1ryy	4r	.	.	8an/L	2f\	1 3	.
.	.	.	.	8cc/	.	5	.
*	*	*below	*	*	*	*	*
.	4AAn/	5	.	8a/	.	.	.
.	.	.	.	8cc/J	.	.	.
.	4C/	4	.	8rff	2en\	.	.
.	.	.	.	8cc/L	.	4	.
.	4AA/	.	.	8a/	.	2	.
.	.	.	.	8cc/J	.	.	.
*	*	*above	*	*	*	*	*
4Gn/	2En\	1	3	8r	2ryy	.	.
.	.	.	.	8bn/	.	3	.
4G#X/	.	2	.	4een\	.	5	.
*v	*v	*	*	*	*	*	*
*	*	*	*v	*v	*	*
*	*v	*v	*	*	*
!!LO:PB:g=original
=25	=25	=25	=25	=25
*	*below	*	*	*
8An\L	1	2an^/	1	.
8c\	2	.	.	.
8A\	4	.	.	.
8c\J	2	.	.	.
8r	.	2g#X^/	4	.
8c\L	1	.	.	.
8A\	3	.	.	.
8c\J	.	.	.	.
8r	.	[2gn^/	3	.
8Bn\	.	.	.	.
!LO:N:n=2:cue	!	!	!	!
4en 4En\	.	.	.	.
=26	=26	=26	=26	=26
*	*below	*	*	*
2An^\	3	4g/]	.	.
.	.	2g-X/	2	.
2A-X^\	4	.	.	.
.	.	2f/	1	.
[2Gn^\	1	.	.	.
!	!	!LO:TX:t=P:problem:aplikatura – łuczek dolny i górny	!	!
.	.	[4en/	21	.
=27	=27	=27	=27	=27
*	*	*^	*	*
*	*	*	*cue	*	*
4G\]	.	8b-X^/L	4enX\]	.	.
.	.	8an/J	.	.	.
*	*	*	*	*below	*
2G-X\	2	4b-/	2e-X\	2	.
.	.	8b-^/L	.	.	.
.	.	8a/J	.	.	.
2F\	1	4b-/	2d\	.	.
.	.	8b-^/L	.	.	.
.	.	8a/J	.	.	.
*	*	*	*	*above	*
!	!	!LO:N:n=2:cue	!	!	!
4En\	3	4b- 4c#X/	4ryy	1 5	.
*	*	*v	*v	*	*
=28	=28	=28	=28	=28
*^	*^	*	*	*
*ped	*	*	*	*	*	*
!LO:N:n=2:cue	!	!	!	!LO:TX:a:i:t=rit.:dur=6q:ext=ud:problem:text with extention lines	!	!
!LO:N:n=3:cue	!	!	!	!LO:N:n=2:cue	!	!
8B-:L 8F: 8BB-:\	2ryy	.	.	2a-X 2d/	1 4	>
8An\J	.	.	.	.	.	.
4B-\	.	.	.	.	.	.
*Xped	*	*	*	*	*	*
!	!	!	!	!LO:N:n=2:cue	!	!
8B-/L	2G\	1	3	2g 2e-X/	2 3	.
8A/J	.	.	.	.	.	.
4B-/	.	.	.	.	.	.
*	*	*below	*	*	*	*
8B-/L	2A-X\	3	.	2d/	1	.
8An/J	.	.	.	.	.	.
4B-/	.	.	.	.	.	.
*	*	*v	*v	*	*	*
!!LO:LB:g=original
=29	=29	=29	=29	=29	=29
*ped	*	*	*	*	*
!	!	!	!LO:N:n=2:cue	!	!
2A-X:/	4BB-: 4EE-:\	.	4ee- 4e-/	.	.
.	2BB-\	4	[4b-/	3	.
2G/	.	1	8b-/L]	.	.
*Xped	*	*	*	*	*
.	.	.	8b-/	4	.
.	4BB-\	4	8cc/	.	.
.	.	.	8g/J	.	.
.	.	.	8qb-/	4	.
2D/	4C\	2 3	8a-/L	3	.
.	.	.	8g/	.	.
.	4BB-\	4	8f/	1	.
.	.	.	8b-/J	5	.
*v	*v	*	*	*	*
=30	=30	=30	=30	=30
*	*	*^	*	*
*cue	*	*	*Xcue	*	*
!	!	!LO:N:n=2:cue	!	!	!
4E- 4EE-/	.	2g 2e-/	4e-\	2 3	.
*Xcue	*	*	*	*	*
[4B-\	2	.	4ryy	.	.
8B-\L]	.	4e-/	4ryy	2	.
8B-\	.	.	.	.	.
8c\	1	4en/	4ryy	.	.
8G\J	4	.	.	.	.
*	*above	*	*	*	*
8qB-/	3	.	.	.	.
*	*below	*	*cue	*	*
8A-\L	2	4f/	4.c\	1 4	.
8G\	.	.	.	.	.
8F\	.	4a-/	.	5	.
8B-\J	2	.	8d\	2	.
*	*	*v	*v	*	*
=31	=31	=31	=31	=31
*^	*^	*	*	*
*ped	*	*above	*	*	*	*
2G/	4rGG	3	.	8r	.	.
*	*	*	*	*	*above	*
.	.	.	.	8e-X/L	3	.
.	2EE-\	5	.	8g/	1	.
.	.	.	.	8b-/J	2	.
4E-/	.	1	.	8ee-\L	.	.
.	.	.	.	8ff\	.	.
*Xped	*	*	*below	*	*	*
!LO:N:n=2:cue	!	!	!	!	!	!
4En 4C/	4ryy	1	3	8gg\	.	.
.	.	.	.	8b-\J	2	.
4F/	2FF\	1	5	8an\L	1	.
.	.	.	.	8a-X\	.	.
4A-/	.	1	.	8ff\	.	.
.	.	.	.	8f\J	.	.
*	*	*v	*v	*	*	*
=32	=32	=32	=32	=32	=32
*	*	*	*^	*	*
8rA	8GG\	.	1dd-X^	2.b-\	2 4	.
*	*	*above	*	*	*	*
8E-X/L	8rGG	2	.	.	.	.
8G/	4rGG	1	.	.	.	.
8B-/J	.	4	.	.	.	.
!LO:TX:t=P:problem:mixed beam	!	!	!	!	!	!
8e-/L	4ryy	2	.	.	.	.
8f/	.	1	.	.	.	.
!	!	!	!	!LO:N:cue	!	!
8g>\	4E-\	.	.	2g/	1	.
*	*	*below	*	*	*	*
8B-/J	.	2	.	.	.	.
8An/L	2ryy	3	[2cc/	.	5	.
8A-X/	.	4	.	.	.	.
8f/	.	1	.	[4a-\	2	.
8F/J	.	5	.	.	.	.
*v	*v	*	*v	*v	*	*
!!LO:LB:g=original
=33	=33	=33	=33	=33
!	!	!LO:N:n=2:cue	!	!LO:HP:b:t=poco dim.
1d-X^	2	4cc] 4a-/]	.	>
.	.	4an/	3	.
.	.	4b-/	4	.
.	.	8en/L	1	.
.	.	8f/J	.	.
[2c\	1	4f#X/	.	.
.	.	4g/	1	.
=34	=34	=34	=34	=34
*^	*	*	*	*
4c\]	1ryy	.	4a-/	4	.
*	*	*above	*	*	*
4An\	.	2	4f#X/	2	.
4B-\	.	1	4g/	3	.
8En\L	.	4	4b-/	5	.
8Fn\J	.	.	.	.	.
4F#X/	[2C\	2	4d#X/	2	.
4G/	.	1	4en/	1	.
=35	=35	=35	=35	=35	=35
*	*	*^	*^	*^	*
*	*	*	*	*	*	*	*below	*
!	!	!	!	!	!LO:TX:t=P:problem:aplikatura – łuczek dolny i górny	!	!	!
4A-/	1C]	2	.	4.cc/	2fn\	5	21	f
4F#X/	.	3	.	.	.	.	.	.
.	.	.	.	8bn/	.	4	.	.
4G/	.	2	.	4.cc/	2en\	.	.	.
4B-X/	.	1	.	.	.	.	.	.
.	.	.	.	8bn/	.	.	.	.
4D#X/	2C\	4	5	[2cc/	4.b-X\	5	2	.
4En/	.	3	.	.	.	.	.	.
.	.	.	.	.	8an\	.	1	.
*	*	*v	*v	*	*	*	*	*
*v	*v	*	*	*	*v	*v	*
=36	=36	=36	=36	=36	=36
*	*below	*	*	*below	*
4.c\	1	4cc/]	2a-X\	2	.
*	*	*	*	*above	*
.	.	4bn/	.	4	.
8Bn\	2	.	.	.	.
!	!	!LO:N:n=2:cue	!	!	!
4.c\	.	4b-X 4g/	2ryy	1 3	.
!	!	!LO:N:n=2:cue	!	!	!
.	.	4an 4f#X/	.	3 5	.
8B\	.	.	.	.	.
!	!	!LO:N:n=2:cue	!	!	!
[2c\	.	4a-X 4fn/	2ryy	.	.
!	!	!LO:N:n=2:cue	!	!	!
.	.	4g [4en//	.	1 3	.
!!LO:LB:g=original
=37	=37	=37	=37	=37	=37
4c\]	.	[1.dd-X^	1.enX]	5	.
4Bn\	.	.	.	.	.
4B-X^\	3	.	.	.	.
4An\	1	.	.	.	.
4A-X^\	4	.	.	.	.
4G\	5	.	.	.	.
*	*	*v	*v	*	*
=38	=38	=38	=38	=38
*	*above	*	*	*
!	!	!	!	!LO:HP:a
1.e-: [1.d-X^<:	2 1	8dd-X\L]	.	<
.	.	8an\	2	.
.	.	8b-\	3	.
.	.	8cc\J	1	.
.	.	8dd-\L	2	.
.	.	8ee-\	3	.
.	.	8ff\	5	.
.	.	8ee-\J	3	[
!	!	!	!	!LO:HP:a
.	.	8dd-\L	.	>
.	.	8cc\	.	.
.	.	8b-\	.	.
.	.	8a-X\J	.	]]
=39	=39	=39	=39	=39
*^	*	*	*	*
8d-X/L]	8E-\	.	2g/	1	<
*	*	*below	*	*	*
8An/	4.ryy	3	.	.	.
8B-/	.	2	.	.	.
8c/J	.	1	.	.	.
*	*	*above	*	*	*
8d-\L	1ryy	3	2b-\	.	.
8e-\	.	.	.	.	[
8f\	.	1	.	.	.
8e-\J	.	.	.	.	>
8d-\L	.	.	[2dd-X\	3	.
8c\	.	1	.	.	.
8B-\	.	3	.	.	.
8A-X\J	.	.	.	.	]
*v	*v	*	*	*	*
=40	=40	=40	=40	=40
2G\	5	8dd-\L]	.	.
.	.	8ddn\	1	.
.	.	8ff\	5	.
.	.	8ee-\J	4	.
2B-\	4	8dd-X\L	3	.
.	.	8cc\	1	.
.	.	8ee-\	5	.
.	.	8dd-\J	4	.
!LO:TX:t=P:problem:aplikatura – łuczek dolny i górny	!	!	!	!
[2d-X\	23	4cc\	3	.
.	.	[<4b-\	2	.
!!LO:LB:g=original
=41	=41	=41	=41	=41
*^	*	*^	*	*
*	*	*below	*cue	*Xcue	*	*
!	!	!	!	!LO:N:n=2:vis=1	!	!
!	!	!	!	!LO:N:n=2:cue	!	!
8d-X/L]	2c\	4	2b-\]	1.ee- 1.ee-	5	.
*	*	*above	*Xcue	*	*	*
8dn/	.	2	.	.	.	.
8f/	.	1	.	.	.	.
8e-/J	.	2	.	.	.	.
8d-X\L	1ryy	3	2a-\	.	1	.
8c\	.	4	.	.	.	.
8e-\	.	1	.	.	.	.
8d-\J	.	.	.	.	.	.
4c\	.	.	[<2g-X\	.	2	.
4B-\	.	4	.	.	.	.
*v	*v	*	*	*	*	*
*	*	*v	*v	*	*
=42	=42	=42	=42	=42
2e-\	1	8g-X/L]	.	.
.	.	8cc/J	.	.
.	.	[4f/	1	.
2A-\	2	8f/L]	.	.
.	.	8cc/J	.	.
.	.	[4en/	1	.
[2G-X\	3	8e/L]	.	.
.	.	8e/	1	.
.	.	8f/	2	.
.	.	[8e-X/J	1	.
=43	=43	=43	=43	=43
*	*	*^	*	*
*	*	*	*cue	*	*
8G-X\L]	.	2an/	2.e-\]	4	.
8c\J	.	.	.	.	.
[4F\	3	.	.	.	.
8F\L]	.	4b-/	.	5	.
8c\J	.	.	.	.	.
!	!	!LO:N:n=2:cue	!	!	!
[4En\	4	4g#X 4en/	4ryy	1 3	.
!	!	!LO:N:n=2:cue	!	!	!
8E\L]	.	4a 4f/	4ryy	.	.
8E\	4	.	.	.	.
!	!	!LO:N:n=2:cue	!	!	!
8F\	3	4b- 4g-X/	4ryy	3 5	.
8E-X\J	5	.	.	.	.
=44	=44	=44	=44	=44	=44
*	*below	*	*	*	*
2An\	1	4bn/	2.e-\	1 3	.
.	.	4cc/	.	.	.
4B-X\	2	4dd-X/	.	.	.
4G#X\	4	4b/	2e-\	1 2	.
4A\	3	4cc/	.	.	.
!	!	!LO:N:n=2:cue	!	!	!
4B-\	.	4ee- [4e-/	4ryy	4	.
*	*	*v	*v	*	*
!!LO:PB:g=original
=45	=45	=45	=45	=45
*^	*	*	*	*
!	!	!	!LO:N:n=2:cue	!	!
4Bn\	4ryy	1	4gg-X 4e-\]	5	.
4c\	2e-/	2 4	2an/	1	.
4d-X\	.	3	.	.	.
4B\	2.ryy	5	8gg-\L	5	.
.	.	.	8ddn\J	2	.
.	.	.	8qff/	4	.
4c\	.	.	8ee-\L	3	.
.	.	.	8dd-X\	.	.
4e-\	.	.	8cc\	1	.
.	.	.	8ee-\J	3	.
*v	*v	*	*	*	*
=46	=46	=46	=46	=46
4g-X\	1	2r	.	.
2An\	5	.	.	.
.	.	8Bn/L	1	.
.	.	8c/	2	.
8g-\L	1	8d-X/	3	.
!LO:TX:b:i:t=d.	!	!LO:TX:a:i:t=g.	!	!
8dn\J	1	8c/J	4	.
!	!	!LO:TX:t=P:problem:aplikatura – błąd wyświetlania	!	!
.	.	8qf</	5	.
2ryy	.	8e-<\L	4	.
.	.	8d-X<\	3	.
.	.	8c<\	1	.
.	.	8e-<\J	2	.
=47	=47	=47	=47	=47
!	!	!LO:TX:a:i:t=d.	!	!
2r	.	8g-X/L	4	.
.	.	8f/	3	.
.	.	8e-/	1	.
.	.	8g-/J	2	.
*	*above	*	*	*
!LO:TX:b:i:t=g.	!	!	!	!
8BBn/L	4	8b-X/L	4	.
8C/	.	8a-X/	3	.
8D-X/	.	8g-/	1	.
8C/J	.	8b-/J	2	.
2r	.	8ee-\L	5	.
.	.	8dd-X\	.	.
.	.	8cc\	3	.
.	.	8ee-\J	5	.
=48	=48	=48	=48	=48
8G-X\L	1	4c'/	1	.
8F\	.	.	.	.
8E-\	3	4r	.	.
8G-\J	2	.	.	.
8B-X\L	1	[1gg-X^	5	.
8A-\	3	.	.	.
8G-\	4	.	.	.
8B-\J	2	.	.	.
8e-\L	1	.	.	.
8d-X\	.	.	.	.
8c\	3	.	.	.
8e-\J	1	.	.	.
!!LO:LB:g=original
=49	=49	=49	=49	=49
*ped	*	*	*	*
4C'/	.	8gg-X\L]	.	.
.	.	8gg-\	5	.
4r	.	8ff\	4	.
.	.	8gg-\J	.	.
[1g-X^	.	8ee-\L	3	.
.	.	8gg-\	.	.
.	.	8dd-X\	2	.
.	.	8gg-\J	.	.
.	.	8cc\L	1	.
.	.	8gg-\J	5	.
.	.	4b-\	2	.
=50	=50	=50	=50	=50
8g-X\L]	.	8e-/L	.	.
8g-\	.	8ee-/	.	.
8f\	2	8dd-X/	.	.
*Xped	*	*	*	*
8g-\J	.	8ee-/J	.	.
8e-\L	3	8cc\L	3	.
8g-\	.	8ee-\	.	.
8d-X\	4	8b-\	2	.
8g-\J	.	8ee-\J	.	.
*	*below	*	*	*
8c\L	5	8a-\L	1	.
8g-\J	1	8ee-\J	5	.
4B-\	5	4g-X/	1	.
=51	=51	=51	=51	=51
8E-\L	.	8c/L	.	.
8e-\	.	8cc/	.	.
*	*above	*	*	*
8d-X\	2	8b-/	.	.
8e-\J	1	8cc/J	.	.
8c\L	2	8a-/L	.	.
8e-\	1	8cc/	.	.
8B-\	3	8g-X/	.	.
8e-\J	.	8cc/J	.	.
8A-\L	4	8f/L	1	.
8e-\J	.	8cc/J	5	.
4G-X\	5	4e-/	2	.
=52	=52	=52	=52	=52
8C\L	.	8A-/L	.	.
8c\	.	8a-/	.	.
*	*below	*	*	*
8B-\	2	8g-X/	.	.
8c\J	.	8a-/J	.	.
8A-\L	3	8f/L	.	.
8c\	.	8a-/	.	.
8G-X\	4	8e-/	.	.
8c\J	.	8a-/J	.	.
8F\L	5	8d-X/L	1	.
8c\J	.	8a-/J	5	.
4E-\	5	4c/	1	.
!!LO:LB:g=original
=53	=53	=53	=53	=53
8AA-\L	5	2r	.	.
8A-\	1	.	.	.
8G-X\	2	.	.	.
8A-\J	.	.	.	.
8F\L	2	1aa-^	3	.
8A-\	.	.	.	.
8E-\	.	.	.	.
8A-\J	.	.	.	.
8D-X\L	4	.	.	.
8A-\J	.	.	.	.
4C/	5	.	.	.
*	*	*clefF4	*	*
=54	=54	=54	=54	=54
2r	.	8En\L	2	.
.	.	8F\	1	.
.	.	8G-X\	.	.
.	.	8A-\J	.	.
1a-^	2	8B-\L	.	.
.	.	8c\	.	.
.	.	8d-X\	.	.
.	.	8e-X\J	.	.
*	*	*clefG2	*below	*
.	.	8f/L	1	.
.	.	8g-X/	.	.
.	.	8a-/	.	.
.	.	8b-/J	4	.
=55	=55	=55	=55	=55
8EEn/L	2	4a-'/	3	.
8FF/	1	.	.	.
8GG-X/	4	4r	.	.
8AA-/J	.	.	.	.
*	*	*	*above	*
8BB-/L	.	1fff^	5	.
8C/	1	.	.	.
8D-X/	.	.	.	.
8E-X/J	.	.	.	.
*	*above	*	*	*
8F\L	1	.	.	.
8G-X\	4	.	.	.
8A-\	.	.	.	.
8B-\J	.	.	.	.
=56	=56	=56	=56	=56
*	*below	*	*	*
4A-'\	3	8c#X/L	2	.
.	.	8dn/	3	.
4r	.	8e-/	4	.
.	.	8f/J	1	.
*clefG2	*	*	*	*
1ff^	1	8g-X/L	.	.
.	.	8a-/	.	.
.	.	8b-/	.	.
.	.	8ccn/J	1	.
.	.	8dd\L	2	.
.	.	8ee-\	3	.
.	.	8ff\	4	.
.	.	8gg-X\J	5	.
*clefF4	*	*	*	*
!!LO:LB:g=original
=57	=57	=57	=57	=57
8C#X/L	4	4ff'\	4	.
8D/	.	.	.	.
8E-/	.	4r	.	.
8F/J	1	.	.	.
8G-X\L	4	1B-^>	1	.
8A-\	.	.	.	.
8B-\	.	.	.	.
8cn\J	1	.	.	.
8d\L	3	.	.	.
8e-\	.	.	.	.
8f\	1	.	.	.
8g-X\J	2	.	.	.
=58	=58	=58	=58	=58
4f'\	1	8r	.	.
.	.	8bb-\L	5	.
4r	.	8aan\	4	.
.	.	8bb-\J	.	.
*ped	*	*	*	*
1BB-^>	5	8aa-X\L	3	.
.	.	8bb-\	.	.
.	.	8gg-X\	2	.
.	.	8bb-\J	.	.
.	.	8ff\L	1	.
.	.	8bb-\J	.	.
.	.	4ee-\	2	.
=59	=59	=59	=59	=59
8r	.	8dd\L	.	.
*clefG2	*	*	*	*
8b-/L	1	8bb-\	.	.
8an/	2	8gg-X\	4	.
8b-/J	.	8bb-\J	.	.
8a-X/L	3	8ff\L	.	.
*Xped	*	*	*	*
8b-/	.	8bb-\	.	.
8g-X/	4	8ee-\	.	.
8b-/J	.	8bb-\J	.	.
8f/L	5	8dd\L	1	.
8b-/J	1	8bb-\J	5	.
4e-/	5	4cc\	1	.
=60	=60	=60	=60	=60
8d/L	5	4ff\	4	.
8b-/	1	.	.	.
8g-X/	2	4ee-\	.	.
8b-/J	.	.	.	.
8f/L	2	4dd\	2	.
8b-/	.	.	.	.
8e-/	3	4cc\	1	.
8b-/J	.	.	.	.
8d/L	4	4b-\	2	.
8b-/J	.	.	.	.
4c/	5	4an/	1	.
*clefF4	*	*	*	*
!!LO:LB:g=original
=61	=61	=61	=61	=61
*	*above	*	*	*
4f\	1	8dd\L	4	.
.	.	8ff\	5	.
4e-\	.	8cc\	3	.
.	.	8ff\J	.	.
4d\	1	8b-\L	2	.
.	.	8ff\	5	.
4c\	2	8a-X\	2	.
.	.	8b-\J	3	.
4B-\	.	8g/L	1	.
.	.	8b-/J	3	.
4An\	4	4f#X/	2	.
=62	=62	=62	=62	=62
*	*	*^	*	*
!	!	!LO:TX:a:i:t=rit.:dur=18q:ext=ud:problem:text with extention lines	!	!	!
8d\L	2	4b-/	4ryy	3	.
8fn\	1	.	.	.	.
8c\	2	4ee-/	2a-X\	2 5	.
8f\J	.	.	.	.	.
8B-\L	3	4dd/	.	5	.
8f\	.	.	.	.	.
!	!	!LO:N:n=2:cue	!	!	!
8A-\	4	4cc 4d/	4ryy	1 4	.
8B-\J	1	.	.	.	.
8G\L	3	[2b-/	4b- 4e-\	1 3	.
8B-\J	1	.	.	.	.
*	*	*	*	*below	*
4F#X\	4	.	4an\	2	.
*	*	*v	*v	*	*
=63	=63	=63	=63	=63
*^	*	*	*	*
!LO:N:n=2:cue	!	!	!	!	!
!LO:N:n=3:cue	!	!	!LO:N:n=2:cue	!	!
4B- 4Fn 4BB-\	1ryy	.	2b-] 2a-X/	1	.
4e-\	.	1	.	.	.
*	*	*	*	*above	*
4d\	.	2	2b-/	3	.
4c\	.	3	.	.	.
[2B-/	4rBB	1	4d/	1	.
*	*	*below	*	*	*
.	4F\	4	4c/	2	.
=64	=64	=64	=64	=64	=64
2B-/]	4F#X\	.	2B-/	1	.
.	4G\	.	.	.	.
!	!	!	!LO:N:n=2:cue	!	!
2B-/	4B-\	1	2g 2e-/	2 3	.
.	4BB-\	5	.	.	.
!	!	!	!LO:N:n=2:cue	!	!
4D/	2ryy	3	2a- 2fn/	1 4	.
4C/	.	4	.	.	.
!!LO:LB:g=original
=65	=65	=65	=65	=65	=65
*	*	*^	*	*	*
*ped	*	*	*	*	*	*
!	!	!	!	!LO:N:n=2:cue	!	!
!LO:N:n=2:cue	!	!	!	!LO:TX:a:i:t=a tempo (poco alargando)	!	!
2BB- 2EE-/	2ryy	2	5	4ee- 4g\	1 5	.
.	.	.	.	2b-\	3	.
!LO:N:n=2:cue	!	!	!	!	!	!
2G 2E-/	4r	2 1	.	.	.	.
*Xped	*	*	*	*	*	*
.	4BB-\	5	.	8cc\L	5	.
.	.	.	.	8g\J	2	.
.	.	.	.	8qb-/	4	.
2A-/	4D\	3 1	.	8a-/L	.	.
.	.	.	.	8g/	.	.
.	4C\	4	.	8f/	1	.
.	.	.	.	8b-/J	5	.
*	*	*v	*v	*	*	*
*v	*v	*	*	*	*
=66	=66	=66	=66	=66
*	*	*^	*	*
*	*	*	*^	*	*
*ped	*	*	*	*	*	*
*cue	*	*	*Xcue	*cue	*	*
!	!	!LO:TX:t=P:problem:klamra	!	!	!	!
4BB- 4EE-\	2 5	2g/	4e-</	2e-\	2 3	.
*Xcue	*	*	*	*	*	*
2B-\	2	.	4ryy	.	.	.
.	.	4d/	4ryy	2ryy	1	.
*Xped	*	*	*	*	*	*
8c\L	1	4e-/	4ryy	.	3	.
8G\J	4	.	.	.	.	.
*	*above	*	*	*	*	*
8qB-/	2	.	.	.	.	.
*	*below	*	*	*	*	*
!	!	!LO:N:n=2:cue	!	!	!	!
8A-\L	3	4f 4c/	4ryy	2ryy	1 4	.
8G\	.	.	.	.	.	.
!	!	!LO:N:n=2:cue	!	!	!	!
8F\	.	4a- 4d/	4ryy	.	2 5	.
8B-\J	2	.	.	.	.	.
*	*	*	*v	*v	*	*
=67	=67	=67	=67	=67	=67
*^	*^	*	*	*	*
*ped	*	*	*	*	*	*below	*
!LO:N:cue	!	!	!	!LO:TX:t=P:problem:aplikatura – błąd wyświetlania	!	!	!
2BB- 2EE-/	1ryy	.	2 5	8rff	2G\	1	.
*	*	*	*	*	*	*above	*
.	.	.	.	8B-/L	.	1	.
.	.	.	.	8b-/	.	5	.
.	.	.	.	8e-/J	.	2	.
*Xped	*	*	*	*	*	*	*
4D\	.	3	.	8r	2ryy	.	.
.	.	.	.	8f/L	.	3	.
4E-\	.	.	.	8a-/	.	5	.
.	.	.	.	8g/J	.	.	.
4F/	2AA-\	1	5	8r	2ryy	.	.
.	.	.	.	8c/L	.	1	.
4A-/	.	2	.	8f/	.	3	.
.	.	.	.	8e-/J	.	.	.
*	*	*v	*v	*	*	*	*
*	*	*	*v	*v	*	*
=68	=68	=68	=68	=68	=68
*ped	*	*	*	*	*
!LO:TX:t=P:problem:aplikatura – błąd wyświetlania	!	!	!LO:N:n=2:cue	!	!
8rA	8BBB-\	5	4f 4d/	1 3	.
8BB-/L	[4.BB-\	5	.	.	.
*	*	*above	*	*	*
!	!	!	!LO:N:n=2:cue	!	!
8B-/	.	1	4g 4e-/	2 4	.
8E-/J	.	3	.	.	.
!	!	!	!LO:N:n=2:cue	!	!
8rA	1BB-]	.	2a- 2c/	1 5	.
*Xped	*	*	*	*	*
8F/L	.	2	.	.	.
8A-/	.	1	.	.	.
8G/J	.	1	.	.	.
!	!	!	!LO:N:n=2:cue	!	!
8rA	.	.	2ff [2a-\	1 5	.
8C/L	.	4	.	.	.
8F/	.	1	.	.	.
8E-/J	.	3	.	.	.
!!LO:PB:g=original
=69	=69	=69	=69	=69	=69
*	*	*	*^	*	*
*ped	*	*	*	*cue	*	*
4F/	1BB-	2	8ee-/L	4a-\]	.	.
.	.	.	8dd/J	.	.	.
4G/	.	1	4ee-/	2b-\	2 4	.
*Xped	*	*	*	*	*	*
2A-/	.	2	1cc	.	5	.
.	.	.	.	8a-\L	3	.
.	.	.	.	8b-\J	.	.
2f'\	2rGG	.	.	8a-\L	.	.
.	.	.	.	8g\	.	.
.	.	.	.	8f\	1	.
.	.	.	.	[8e-\J	2	.
=70	=70	=70	=70	=70	=70	=70
*	*	*	*	*^	*^	*
*ped	*	*	*	*Xcue	*	*	*	*
2r	1.BB-	.	2b-/	8e-\L]	4a- 4f/	3 4 5	.	.
.	.	.	.	8d\J	.	.	1	.
.	.	.	.	4e-\	2g 2e-/	4	2	.
.	.	.	.	.	.	.	.	.
*Xped	*	*	*	*	*	*	*	*
1c	.	1	1a-	4ryy	.	5	.	.
*	*	*	*	*cue	*	*	*	*
.	.	.	.	8f\L	8ryy	.	.	.
.	.	.	.	8g\J	8ryy	.	.	.
.	.	.	.	8f\L	2ryy	.	.	.
.	.	.	.	8e-\	.	.	.	.
.	.	.	.	8d\	.	.	.	.
.	.	.	.	8c\J	.	.	.	.
*	*	*	*	*	*	*v	*v	*
*	*	*	*v	*v	*v	*	*
=71	=71	=71	=71	=71	=71
!	!	!	!	!	!LO:HP:a
2B-/	1.BB-	.	8r	.	<
.	.	.	8c/L	1	.
.	.	.	8d/	.	.
.	.	.	8e-/J	.	.
*	*	*below	*	*	*
1A-	.	2	8f/L	1	.
.	.	.	8g/	.	.
.	.	.	8a-/	.	.
.	.	.	8b-/J	.	.
.	.	.	8cc\L	1	.
.	.	.	8ee-\	3	.
.	.	.	8dd\	2	.
.	.	.	8ff\J	5	[[
=72	=72	=72	=72	=72	=72
*	*	*	*^	*	*
*cue	*Xcue	*	*	*	*	*
8G/	8rAA	.	2ee-/	4r	3	<
*	*	*below	*	*	*	*
!	!LO:TX:t=P:problem:aplikatura – błąd wyświetlania	!	!	!	!	!
8rA	8C\L	5	.	.	.	.
*	*	*	*	*	*above	*
4r	8D\	.	.	4g\	1	.
.	8E-\J	.	.	.	.	.
*	*	*	*	*	*above	*
!	!LO:TX:t=P:problem:aplikatura – błąd wyświetlania	!	!	!	!	!
1ryy	8F\L	2	4cc/	2.a-\	1 2	.
.	8G\	1	.	.	.	.
.	8A-\	3	2aa-^/	.	.	.
.	8B-\J	.	.	.	.	.
.	8c\L	1	.	.	.	.
.	8e-\	2	.	.	.	.
.	8d\	3	4cc-X/	[4a-\	1 3	.
.	8f\J	1	.	.	.	[[
*v	*v	*	*	*	*	*
!!LO:LB:g=original
=73	=73	=73	=73	=73	=73
*Xcue	*	*	*	*	*
!	!	!LO:N:n=2:cue	!	!	!
2e-\	2	4b- 4a-/]	4ryy	.	.
.	.	2ee-/	4g\	1 5	.
4c\	3	.	4a-\	1	.
2a-^\	1	8dd\L	2ryy	3	.
.	.	8ccn\J	.	.	.
.	.	8dd\L	.	.	.
.	.	8ee-\J	.	.	.
4c-X\	4	4ff\	4ryy	5	.
=74	=74	=74	=74	=74	=74
*ped	*	*	*	*	*
4BB- 4BBB-/	.	2.gg-X 2.g-X/	4dd-X\	.	.
2E- 2EE-/	.	.	4cc\	.	.
.	.	.	2.cc-X\	.	.
*Xped	*	*	*	*	*
8DL 8DD/	.	2ff 2f/	.	.	.
8CnJ 8CCn/	.	.	.	.	.
8DL 8DD/	.	.	.	.	.
8E-J 8EE-/	.	.	.	.	.
4F 4FF/	.	4b-/	8b-\L	2	.
.	.	.	8a-\J	1	.
=75	=75	=75	=75	=75	=75
*	*	*cue	*	*	*
2.G-X 2.GG-X/	.	4rff	8re	.	.
.	.	.	8B-\L	.	.
.	.	4b-/	8d-X\	.	.
.	.	.	8B-\J	.	.
.	.	2an/	4Bn\	1 5	.
2F 2FF/	.	.	4c 4An\	1 2	.
.	.	2a-X 2A-X/	4d-\	.	.
[<4BB- [4BBB-/	.	.	4dn\	.	.
*	*	*	*Xcue	*	*
=76	=76	=76	=76	=76	=76
*^	*	*	*	*	*
*	*	*	*Xcue	*	*	*
!	!	!	!LO:TX:a:i:t=rit.:dur=6q:ext=ud:problem:text with extention lines	!	!	!
2ryy	4BB-] 4BBB-\]	.	4gn 4Gn</	2.e-\	.	.
.	4AAn 4AAAn\	.	4g-X 4G-X</	.	.	.
4F/	2BB- 2BBB-\	.	2..f/	.	5	.
*	*	*above	*	*	*below	*
2A-X/	.	1	.	8e-\L	4	.
.	.	.	.	8c\J	2	.
.	2BBB- 2BBBB-\	.	.	4.d\	3	.
4Gn/	.	1	.	.	.	.
*	*	*	*	*	*above	*
.	.	.	8e-/	8e-\	4	.
*v	*v	*	*	*	*	*
=77	=77	=77	=77	=77	=77
*cue	*	*	*	*	*
*ped	*	*8va	*cue	*	*
2EE- 2EEE-/	.	4eeee-/	2.eee-\	.	.
.	.	2bbb-/	.	4	.
*clefG2	*	*	*	*	*
2dd-X 2d-X^/	.	.	.	.	.
.	.	8cccc/L	2eee-\	5	.
.	.	8ggg/J	.	3	.
.	.	8qbbb-/	.	5	.
4cc 4c/	.	8aaa-/L	.	4	.
.	.	8ggg/	.	.	.
4cc-X 4c-X/	.	8fff/	4dddn\	3	.
.	.	8aaa-/J	.	4	.
*	*	*X8va	*	*	*
!!LO:LB:g=original
=78	=78	=78	=78	=78	=78
*Xped	*	*	*Xcue	*	*
2b- 2B-/	.	2.ggg/	4eee-\	2 3	.
.	.	.	2bb-\	1	.
*clefF4	*	*	*	*	*
4EE-/	.	.	.	.	.
*clefG2	*	*	*	*	*
4dd-X 4d-X/	.	2eee-/	8ccc\L	4 5	.
.	.	.	8gg\J	1	.
.	.	.	8qbb-/	4	.
4cc 4c/	.	.	8aa-\L	3	.
.	.	.	8gg\	.	.
4cc-X 4c-X/	.	4ddd/	8ff\	1 5	.
.	.	.	8aa-\J	2	.
=79	=79	=79	=79	=79	=79
*ped	*	*	*	*	*
4b- 4B-/	.	4eee-/	2.gg\	1 5	.
*clefF4	*	*	*	*	*
4EE-/	.	2bb-/	.	4	.
*clefG2	*	*	*	*	*
2dd-X 2d-X^>/	.	.	.	.	.
.	.	8cccn/L	2ee-\	5	.
.	.	8gg/J	.	3	.
.	.	8qbb-/	.	5	.
4cc 4c/	.	8aa-/L	.	4	.
.	.	8gg/	.	.	.
4cc-X 4c-X/	.	8ff/	4ddn\	.	.
.	.	8aa-/J	.	.	.
=80	=80	=80	=80	=80	=80
*Xped	*	*	*	*	*
2b- 2B-/	.	2.gg/	4ee-\	2 3	.
.	.	.	2b-\	1	.
*clefF4	*	*	*	*	*
4EE-/	.	.	.	.	.
4d-X 4D-X\	.	2ee-/	8ccn\L	4 5	.
.	.	.	8g\J	.	.
.	.	.	8qb-/	4	.
4c 4C\	.	.	8a-\L	3	.
.	.	.	8g\	.	.
4c-X 4C-X\	.	4ddn/	8f\	1 5	.
.	.	.	8a-\J	2	.
=81	=81	=81	=81	=81	=81
*ped	*	*	*	*	*
4B- 4BB-\	.	4ee-/	2.g\	1 5	.
4EE-/	.	2b-/	.	4	.
*	*below	*	*	*	*
2d-X 2E- 2D-X^>/	1 3 4	.	.	.	.
.	.	8ccn/L	2e-\	1 5	.
.	.	8g/J	.	3	.
.	.	8qb-/	.	5	.
4c 4C/	.	8a-/L	.	4	.
.	.	8g/	.	.	.
4c-X 4C-X/	.	8f/	[4dn\	1 2	.
.	.	8b-/J	.	5	.
!!LO:LB:g=original
=82	=82	=82	=82	=82	=82
!!!OMD: Poco più.
!!!OMD-mod: Poco più
*Xcue	*	*	*	*	*
*Xped	*	*	*	*	*
4B- 4BB-\	.	8a-/L	4d\]	.	.
.	.	8g/	.	.	.
4Bn 4BBn\	.	8f/	2d\	.	.
.	.	8b-X/J	.	.	.
4cn 4Cn\	.	8a-/L	.	.	.
.	.	8g/	.	.	.
4c-X 4C-X\	.	8f/	2d\	.	.
.	.	8b-/J	.	.	.
4B-X 4BB-X\	.	8a-/L	.	.	.
.	.	8g/	.	.	.
4Bn 4BBn\	.	8f/	4d\	.	.
.	.	8b-X/J	.	.	.
=83	=83	=83	=83	=83	=83
*	*	*	*Xcue	*	*
*Xbrackettup	*	*Xbrackettup	*	*	*
(<4cn 4Cn\	4	2a-/	4rA	.	.
4C#X/)	3	.	4c#X\	1	.
*ped	*	*	*	*	*
6F 6BB-X 6EE-'<\	.	6a- 6d 6B-X< 6A-<'>/	2ryy	.	.
!LO:TX:t=P:problem:aplikatura przy BB-	!	!	!	!	!
6F 6BB-'<\	2	6a- 6d 6B-< 6A-<'>/	.	.	.
6F 6BB-'<\	.	6a- 6d 6B-< 6A-<'>/	.	.	.
*Xped	*	*	*	*	*
2F 2BB-\	.	2a- 2d 2B-< 2A-</	2ryy	.	.
=84	=84	=84	=84	=84	=84
*ped	*	*	*	*	*
!LO:TX:t=P:problem:aplikatura przy BB-	!	!	!	!	!
6B- 6E- 6BB- 6EE-':/	3	6dd-X 6a- 6e- 6d-X'>/	2ryy	.	.
6B- 6E- 6BB-'<\	.	6dd- 6a- 6e- 6d-'>/	.	.	.
6B- 6E- 6BB-'<\	.	6dd- 6a- 6e- 6d-'>/	.	.	.
*Xped	*	*	*Xcue	*	*
2B- 2E- 2BB-\	.	2dd- 2e- 2d-/	(4a-\	1 2 3 5	.
.	.	.	4g\)	3	.
8qEE-/	.	.	.	.	.
*ped	*	*	*	*	*
!	!	!LO:TUP:a	!	!	!
6A- 6E- 6AA-'<\	4	6gg-X 6dd- 6a- 6g-X'\	2ryy	.	<
6A- 6E- 6AA-'<\	.	6gg- 6dd- 6a- 6g-'\	.	.	.
*Xped	*	*	*	*	*
6A- 6E- 6AA-'<\	.	6gg- 6dd- 6a- 6g-'\	.	.	.
=85	=85	=85	=85	=85	=85
2A- 2E- 2AA-\	.	2gg-X 2dd-X 2a- 2g-X/	(4dd-\	1 2 3 5	.
.	.	.	.	.	.
.	.	.	4cc\)	3	.
.	.	.	.	.	.
8qEE-/	.	.	.	.	.
*ped	*	*	*	*	*
!	!	!LO:TUP:a	!	!	!
6A- 6D-X 6AA-'<\	4	6ccc-X 6gg- 6dd- 6cc-X'\	2ryy	.	.
6A- 6D- 6AA-'<\	.	6ccc- 6gg- 6dd- 6cc-'\	.	.	.
6A- 6D- 6AA-'<\	.	6ccc- 6gg- 6dd- 6cc-'\	.	.	.
2A- 2D- 2AA-\	.	2ccc- 2dd- 2cc-\	(>4gg-/	1 2 3 5	.
.	.	.	4ff/)	3	.
*	*	*v	*v	*	*
!!LO:LB:g=original
=86	=86	=86	=86	=86
2EE-/	.	2r	.	.
*Xped	*	*	*	*
!	!	!LO:TX:b:i:t=poco rit.	!	!
2A- 2D-X 2AA-\	2 5	2ccc-X 2ff 2dd-X 2cc-X\	.	.
2A- 2Dn 2AA-\	.	2bb- 2ff 2ddn 2b-\	.	[[
=87	=87	=87	=87	=87
*ped	*	*	*	*
2EE- 2EEE-/	.	2r	.	ff
*	*	*8va	*	*
2G 2E- 2BB- 2GG/	.	2bbb- 2eee- 2bb-\	.	.
*	*	*X8va	*	*
2B- 2G 2E- 2BB-\	.	2ggg 2eee- 2bb- 2gg\	.	.
=88	=88	=88	=88	=88
2e-> 2B- 2G 2E-\	.	2eee- 2bb- 2gg 2ee-/	.	.
2g> 2e-> 2B- 2G\	.	2bb- 2ee- 2b-/	.	.
2e-> 2B- 2G 2E-\	.	2gg 2ee- 2b- 2g/	.	.
=89	=89	=89	=89	=89
!	!	!LO:TX:b:i:t=rit.:dur=12q:ext=ud:problem:text with extention lines	!	!
1B- 1G 1E- 1BB-	.	1ee- 1b- 1g 1e-^>	.	.
[<2C [<2GG [2CC\	.	[2e- [>2G< [>2E-<^>/	.	.
=90	=90	=90	=90	=90
*Xped	*	*	*	*
2C] 2GG] 2CC\]	.	2e-] 2G<] 2E-</]	.	.
1F: 1E-: 1AA-: 1EE-: 1AAA-:	1 2 3 5	1f 1e- 1c^>	.	.
=91	=91	=91	=91	=91
*ped	*	*	*	*
1.EE- 1.BBB- 1.EEE-	.	1.g 1.e- 1.B-< 1.G<^>	.	.
*clefG2	*	*	*	*
=92	=92	=92	=92	=92
*	*	*8va	*	*
1.gg: 1.ee-: 1.b-: 1.g:	.	4eeee- 4eee-'^\	.	.
*	*	*X8va	*	*
.	.	4r	.	.
.	.	2r	.	.
.	.	2r	.	.
*Xped	*	*	*	*
==	==	==	==	==
*-	*-	*-	*-	*-
!!!system-decoration: {(s1,s2)}
!!!RDF**kern: > = above
!!!RDF**kern: < = below
!!!RDF**kern: N = linked
!!!RDF**dynam: > = "dim.", fontstyle= "italic"
!!!ENC: Katarzyna Serwa
!!!END: 2022-07-26
!!!ENC: Berenika Jozajtis
!!!END: 2022-07-19
!!!YEC: Copyright 2022 Narodowy Instytut Fryderyka Chopina (https://polishscores.org)
!!!YEM: License CC-BY-4.0 (https://creativecommons.org/licenses/by/4.0)
